X:1
T:Carmel
T:Wallhead
T:Carmel
C:Wallhead
%%score { ( 1 2 ) | ( 3 4 ) }
L:1/8
Q:1/2=120
M:4/2
K:D
V:1 treble nm="Piano" snm="Pno."
V:2 treble 
V:3 bass 
V:4 bass 
V:1
 D8 D4 E4 | F8 A8 | (A4 G4) (E4 F4) | D16 | A8 A4 A4 | d8 c8 | (c4 B4) (F4 ^G4) | A8 z8 | %8
 F8 F4 F4 | F8 c8 | (d4 c4) (B4 ^A4) | B8 z8 | d8 c4 B4 | A8 (A4 G4) | (F4 D4) (F4 E4) | D8 z8 |] %16
V:2
 A,8 A,4 C4 | D8 D8 | E8 C8 | D16 | F8 E4 E4 | E8 E8 | F8 D8 | C8 z8 | D8 E4 E4 | D8 F8 | %10
 (F4 G4) (F4 E4) | D8 z8 | D8 D4 D4 | D8 E8 | D8 C8 | D8 z8 |] %16
V:3
 F,8 F,4 A,4 | A,8 =C8 | B,8 G,8 | F,8 z8 | A,8 A,4 A,4 | (F,4 ^G,4) A,8 | (A,4 D4) B,8 | A,8 z8 | %8
 A,8 ^A,4 A,4 | B,8 E8 | (D4 E4) (D4 C4) | B,8 z8 | B,8 A,4 G,4 | A,8 B,8 | (A,4 F,4) G,8 | %15
 F,8 z8 |] %16
V:4
 D,8 D,4 A,,4 | D,8 F,,8 | G,,8 A,,8 | D,8 z8 | D,8 C,4 C,4 | B,,8 A,,8 | B,,8 E,8 | A,,8 z8 | %8
 D,8 C,4 C,4 | B,,8 ^A,,8 | (D,4 E,4) F,8 | B,,8 z8 | G,,8 G,,4 G,,4 | F,,8 G,,8 | A,,8 A,,8 | %15
 D,8 z8 |] %16

